public/images/logos/strapi.svg

<svg width="28" height="28" viewBox="0 0 28 28" fill="none" xmlns="http://www.w3.org/2000/svg">
<path fill-rule="evenodd" clip-rule="evenodd" d="M18.2683 18.6728V10.2691C18.2683 10.1253 18.2112 9.98753 18.1096 9.88593C18.0079 9.78432 17.8701 9.72724 17.7264 9.72724H9.33252V1.05273H26.3913C26.4625 1.05272 26.533 1.06673 26.5987 1.09396C26.6645 1.12118 26.7242 1.1611 26.7746 1.21142C26.8249 1.26175 26.8648 1.32149 26.8921 1.38725C26.9193 1.453 26.9333 1.52348 26.9333 1.59466V18.6728H18.2683Z" fill="#8E75FF"/>
<path opacity="0.405" fill-rule="evenodd" clip-rule="evenodd" d="M9.33256 1.05273V9.72724H1.32123C1.26766 9.72722 1.21528 9.71133 1.17074 9.68156C1.12619 9.65179 1.09146 9.60949 1.07095 9.56C1.05043 9.5105 1.04505 9.45604 1.05547 9.40348C1.0659 9.35093 1.09167 9.30264 1.12953 9.26473L9.33256 1.05273ZM18.2684 26.6925V18.6728H26.9334L18.731 26.884C18.6931 26.9219 18.6448 26.9477 18.5923 26.9581C18.5397 26.9686 18.4852 26.9632 18.4357 26.9427C18.3862 26.9222 18.3439 26.8875 18.3141 26.843C18.2843 26.7985 18.2684 26.7461 18.2684 26.6925ZM9.33256 9.72724H17.9973C18.0692 9.72724 18.1381 9.75578 18.1889 9.80658C18.2398 9.85738 18.2683 9.92629 18.2684 9.99815V18.6728H9.87448C9.80331 18.6728 9.73285 18.6587 9.6671 18.6315C9.60135 18.6043 9.54161 18.5644 9.49128 18.514C9.44096 18.4637 9.40104 18.404 9.37381 18.3382C9.34657 18.2725 9.33256 18.202 9.33256 18.1308V9.72724Z" fill="#8E75FF"/>
</svg>

<svg xmlns="http://www.w3.org/2000/svg" width="28" height="28" fill="#8e75ff" fill-rule="evenodd" xmlns:v="https://vecta.io/nano"><path d="M18.268 18.673v-8.404a.54.54 0 0 0-.542-.542H9.333V1.053h17.059a.54.54 0 0 1 .383.159c.05.05.09.11.117.176s.041.136.041.207v17.078h-8.665z"/><path opacity=".405" d="M9.333 1.053v8.675H1.321a.27.27 0 0 1-.25-.167.27.27 0 0 1 .059-.295l8.203-8.212zm8.936 25.64v-8.02h8.665l-8.202 8.211a.27.27 0 0 1-.295.059.27.27 0 0 1-.167-.25zM9.333 9.727h8.665a.27.27 0 0 1 .271.271v8.675H9.874c-.071 0-.142-.014-.207-.041a.54.54 0 0 1-.293-.293.54.54 0 0 1-.041-.207V9.727z"/></svg>
